!!!COM: Palestrina, Giovanni Perluigi da
!!!OPR: O magnum mysterium
!!!OTL: Credo
**kern	**kern	**kern	**kern	**kern
*Ibass	*Itenor	*Icalto	*Icalto	*Icant
!Bassus	!Tenor	!Altus 2	!Altus 1	!Cantus
*clefF4	*clefGv2	*clefG2	*clefG2	*clefG2
*k[]	*k[]	*k[]	*k[]	*k[]
*E:phr	*E:phr	*E:phr	*E:phr	*E:phr
*M4/2	*M4/2	*M4/2	*M4/2	*M4/2
=1	=1	=1	=1	=1
0r	0E	[0e	0B	0g#
=2	=2	=2	=2	=2
0AA	0A	0e]	0c#	0a
=3	=3	=3	=3	=3
0D	1r	0f#	0d	0a
.	1D	.	.	.
=4	=4	=4	=4	=4
0r	2G	1g	1d	1b
.	2G	.	.	.
.	2F	1a	2f	1cc
.	2F	.	2f	.
=5	=5	=5	=5	=5
0r	4D	2.a	2.f	2dd
.	4E	.	.	.
.	4F	.	.	2.cc
.	4G	8g	8e	.
.	.	8f	8d	.
.	4A	2e	4c	.
.	4B	.	4d	4b
.	4c	2c	[2e	[2a
.	4A	.	.	.
=6	=6	=6	=6	=6
1r	1B	1d	4e]	4a]
.	.	.	4d	8g
.	.	.	.	8f#
.	.	.	2d	2g#
1AA	1A	2e	2c#	[1a
.	.	2c#	2e	.
=7	=7	=7	=7	=7
2AA	2r	2c#	2e	0a]
2AA	2A	2c#	2e	.
1D	2A	1d	1f#	.
.	2A	.	.	.
=8	=8	=8	=8	=8
2C	1c	1e	1g	2r
2C	.	.	.	2e
4AA	1c	1r	2a	2e
4BB	.	.	.	.
4C	.	.	[2g	2e
4D	.	.	.	.
=9	=9	=9	=9	=9
4E	1B	0r	4g]	1g
4F	.	.	4f	.
4G	.	.	2.e	.
4E	.	.	.	.
1F	2.A	.	.	2a
.	.	.	8d	.
.	.	.	8c	.
.	.	.	2d	2a
.	4B	.	.	.
=10	=10	=10	=10	=10
[0E	2c	0r	[0e	4g
.	.	.	.	4f
.	1B	.	.	4e
.	.	.	.	4d
.	.	.	.	2c
.	[2A	.	.	4B
.	.	.	.	4A
=11	=11	=11	=11	=11
1E]	2A]	1r	1e]	1B
.	2G#	.	.	.
2r	[1A	1e	1c#	1A
2AA	.	.	.	.
=12	=12	=12	=12	=12
2AA	0A]	2e	2c#	2r
1D	.	1f	1d	1a
2AA	.	2e	2c	2a
=13	=13	=13	=13	=13
2AA	0r	2c	2e	1.cc
1A	.	1c	2e	.
.	.	.	2f#	.
2G	.	2d	[2g	2b
=14	=14	=14	=14	=14
1E	1r	4e	4g]	1g
.	.	4d	4f	.
.	.	4c	4e	.
.	.	4B	4d	.
2.F	2r	[1A	2c	[1a
.	[2d	.	[2f	.
4G	.	.	.	.
=15	=15	=15	=15	=15
0A	2d]	1A]	2f]	2a]
.	2c	.	2e	2a
.	2A	2r	2f	1a
.	2c	[2a	2e	.
=16	=16	=16	=16	=16
1r	2B	2a]	2d	2r
.	2B	2g	2d	1dd
2r	1A	2f	2.a	.
[2A	.	4e	.	2cc
.	.	4d	4g	.
=17	=17	=17	=17	=17
2A]	0r	2c	4e	2a
.	.	.	4f	.
2G	.	2d	2.g	2b
2E	.	1e	.	4cc
.	.	.	4f	4b
2G	.	.	[2e	4b
.	.	.	.	8a
.	.	.	.	8g
=18	=18	=18	=18	=18
2F	1r	1A	4e]	2a
.	.	.	8d	.
.	.	.	8c	.
2F	.	.	2d	2a
1E	2r	1B	1e	1g#
.	2E	.	.	.
=19	=19	=19	=19	=19
1AA	2E	1c#	1e	2r
.	1A	.	.	1a
2AA	.	2c#	2e	.
[2D	2A	[2d	[2f	2a
=20	=20	=20	=20	=20
2D]	1A	2d]	2f]	2.a
2C#	.	2e	2e	.
.	.	.	.	4a
2D	1A	2f#	2d	2a
2D	.	2f#	2d	2a
=21	=21	=21	=21	=21
1GG	1G	0g	1d	1b
[1C	2.E	.	1e	[1cc
.	4F	.	.	.
=22	=22	=22	=22	=22
1C]	1G	1e	0c	1cc]
1FF	1F	1f	.	1cc
=23	=23	=23	=23	=23
0F	2.A	0f	1c	0a
.	4B	.	.	.
.	[1c	.	2.A	.
.	.	.	4B	.
=24	=24	=24	=24	=24
0C	2c]	0e	1c	1g
.	2G	.	.	.
.	2r	.	2r	1g
.	2c	.	2e	.
=25	=25	=25	=25	=25
0r	2c	0r	2e	2g
.	2B	.	2d	2g
.	2.c	.	2.e	2.a
.	4B	.	4d	4g
=26	=26	=26	=26	=26
0r	2A	0r	2c	2f
.	2G#	.	2B	2e
.	2.A	.	2.c	4f
.	.	.	.	4e
.	.	.	.	[2e
.	4G	.	4B	.
=27	=27	=27	=27	=27
2r	2F	2r	1A	2e]
2A	2F	2A	.	2d
2A	1E	2c	2r	1e
2G#	.	2B	2e	.
=28	=28	=28	=28	=28
1.A	0r	1.c	2e	1r
.	.	.	2e	.
.	.	.	2f	2r
2G	.	2B	2e	2e
=29	=29	=29	=29	=29
2F	0r	2A	2d	2f
2E	.	2G	2c	2g
2.F	.	1A	4d	2f
.	.	.	4c	.
.	.	.	[2c	[2a
4E	.	.	.	.
=30	=30	=30	=30	=30
2D	1r	1F	2c]	2a]
2D	.	.	2B	4g
.	.	.	.	4f
[1C	2r	1G	2.c	1e
.	[2G	.	.	.
.	.	.	4d	.
=31	=31	=31	=31	=31
0C]	2G]	2.c	1e	2r
.	2G	.	.	1g
.	.	4d	.	.
.	2.c	[1e	2r	.
.	.	.	[2c	2g
.	4B	.	.	.
=32	=32	=32	=32	=32
0r	2.A	2e]	2c]	2.cc
.	.	2e	2c	.
.	4G	.	.	4b
.	2F	2f	2c	2a
.	2E	2g	2c	2g
=33	=33	=33	=33	=33
1r	1F	1a	1c	1f
2r	2C	2g	1c	2.e
[2C	[2c	[2e	.	.
.	.	.	.	4f
=34	=34	=34	=34	=34
2C]	2c]	2e]	2r	1g
2C	2c	2e	1c	.
2.F	[1A	[1f	.	1r
.	.	.	2c	.
4E	.	.	.	.
=35	=35	=35	=35	=35
0D	2A]	2f]	2.f	0r
.	2B-	2d	.	.
.	.	.	4e	.
.	1A	1f	1d	.
=36	=36	=36	=36	=36
2C#	2.A	2e	2e	1r
2D	.	2d	2f	.
.	4A	.	.	.
1AA	2A	2c	2e	2r
.	2A	2A	2c	2cc
=37	=37	=37	=37	=37
0r	2G	2B	2d	2b
.	2F	2c	2f	2a
.	1D	1d	1f	1a
=38	=38	=38	=38	=38
1r	1E	1B	1.e	4g
.	.	.	.	4f
.	.	.	.	4e
.	.	.	.	4d
1A	1r	2r	.	2c
.	.	2c	2A	2cc
=39	=39	=39	=39	=39
2G	0r	2d	2B	2b
2F	.	2f	2c	2a
2D	.	2f	2d	2a
2D	.	2f	2d	2a
=40	=40	=40	=40	=40
1E	1r	0e	1B	4g
.	.	.	.	4f
.	.	.	.	4e
.	.	.	.	4d
1r	1A	.	2r	2c
.	.	.	2c	2cc
=41	=41	=41	=41	=41
0r	2G	2r	2d	2b
.	2F	2A	2d	2a
.	1E	2c	1e	4g
.	.	.	.	4f
.	.	2B	.	4e
.	.	.	.	4d
=42	=42	=42	=42	=42
1A	2r	1e	2r	2c
.	2A	.	2c	2cc
2G	2B	1r	2d	2b
2F	2c	.	2f	2a
=43	=43	=43	=43	=43
1D	2.d	0r	1f	4b
.	.	.	.	4a
.	.	.	.	1a
.	4c	.	.	.
1E	1B	.	1e	.
.	.	.	.	2g#
=44	=44	=44	=44	=44
1AA	2A	1e	2r	1a
.	1A	.	1c	.
1r	.	2f#	.	1r
.	2B	[2g	2d	.
=45	=45	=45	=45	=45
0r	1c	2g]	1e	0r
.	.	2a	.	.
.	2B	1g	2d	.
.	[2c	.	[2e	.
=46	=46	=46	=46	=46
0r	2c]	1e	2e]	2r
.	2A	.	2c	1a
.	1d	2r	1f	.
.	.	[2f	.	2b
=47	=47	=47	=47	=47
0r	1c	2f]	1g	2cc
.	.	2e	.	2cc
.	2F	[1f	[1a	1cc
.	2F	.	.	.
=48	=48	=48	=48	=48
0r	1c	2f]	2a]	2cc
.	.	2e	2g	1cc
.	1G	1d	2.g	.
.	.	.	.	2b
.	.	.	4f	.
=49	=49	=49	=49	=49
0r	2.A	2c	1.e	2.cc
.	.	2.c	.	.
.	4B	.	.	4b
.	2c	.	.	2a
.	.	4A	.	.
.	[2d	2B-	2d	2g
=50	=50	=50	=50	=50
1r	2d]	1A	1e	1a
.	2c#	.	.	.
1D	2d	2r	1f#	1a
.	2A	[2d	.	.
=51	=51	=51	=51	=51
2D	2A	2d]	2r	0r
1G	1B	2d	2d	.
.	.	2B	2d	.
2E	2c	2G	[2g	.
=52	=52	=52	=52	=52
1D	1d	2A	2g]	0r
.	.	2B	2f	.
[1C	[1G	4c	1e	.
.	.	4B	.	.
.	.	4c	.	.
.	.	4d	.	.
=53	=53	=53	=53	=53
2C]	1G]	4e	2c	0r
.	.	4f	.	.
2E	.	1g	2c	.
1D	1A	.	2.d	.
.	.	2f#	.	.
.	.	.	4c	.
=54	=54	=54	=54	=54
2r	1G	2g	1B	2r
2E	.	2e	.	2b
2G	1r	2d	1r	2b
2A	.	2c	.	2cc
=55	=55	=55	=55	=55
1F	0r	1f	0r	1a
2C	.	2e	.	2g
2D	.	2d	.	2f
=56	=56	=56	=56	=56
1A	2r	2c	0r	2e
.	2A	2c	.	2e
1r	2G	2e	.	2g
.	2F	2f	.	2a
=57	=57	=57	=57	=57
0r	1B-	1.d	1r	2f
.	.	.	.	4e
.	.	.	.	4d
.	1A	.	2r	1e
.	.	2c	2e	.
=58	=58	=58	=58	=58
0r	0F	2.f	2d	1a
.	.	.	2c	.
.	.	4e	.	.
.	.	4d	1f	1a
.	.	4c	.	.
.	.	[2c	.	.
=59	=59	=59	=59	=59
0r	1G	4c]	2e	0g
.	.	8B	.	.
.	.	8A	.	.
.	.	2B	1d	.
.	2.E	1e	.	.
.	.	.	[2c	.
.	4F	.	.	.
=60	=60	=60	=60	=60
1r	1G	0d	2c]	1g
.	.	.	4B	.
.	.	.	4A	.
1G	1r	.	1B	1dd
=61	=61	=61	=61	=61
1C	1e	0g	1c	1cc
4GG	[1d	.	1r	1b
4AA	.	.	.	.
4BB	.	.	.	.
4C	.	.	.	.
=62	=62	=62	=62	=62
4D	2d]	1f	0r	1a
4E	.	.	.	.
2F	1c	.	.	.
1C	.	1e	.	1g
.	2B	.	.	.
=63	=63	=63	=63	=63
1D	0A	1d	0a	1f
1AA	.	1c	.	[1e
=64	=64	=64	=64	=64
2r	1E	1B	1g	1e]
2E	.	.	.	.
1F	2r	2A	1f	1a
.	2c	2F	.	.
=65	=65	=65	=65	=65
1C	1c	2G	1e	1g
.	.	2E	.	.
1D	2A	2F	1d	2f
.	2F	[2A	.	2f
=66	=66	=66	=66	=66
0AA	1A	4A]	2.c	2.e
.	.	4B	.	.
.	.	4c	.	.
.	.	4d	4B	4d
.	[1E	1e	1A	1c
=67	=67	=67	=67	=67
0E	1E]	0e	1G#	1B
.	1G#	.	2r	1b
.	.	.	[2e	.
=68	=68	=68	=68	=68
0r	1A	2r	2e]	1cc
.	.	2e	1c	.
.	1F	2a	.	1cc
.	.	2a	[2f	.
=69	=69	=69	=69	=69
0r	1c	1g	2f]	1cc
.	.	.	1e	.
.	1d	1f	.	1a
.	.	.	[2d	.
=70	=70	=70	=70	=70
1r	0A	1e	2d]	1a
.	.	.	2c#	.
1D	.	1f	2r	2r
.	.	.	2d	[2a
=71	=71	=71	=71	=71
1E	0r	1e	2c	2a]
.	.	.	2B	1g
1C	.	1g	1e	.
.	.	.	.	[2cc
=72	=72	=72	=72	=72
1G	0r	1g	1d	2cc]
.	.	.	.	1b
1A	.	1e	1c	.
.	.	.	.	[2a
=73	=73	=73	=73	=73
1E	1r	1e	1B	2a]
.	.	.	.	2g#
1r	[1A	[1c	[1e	2r
.	.	.	.	[2a
=74	=74	=74	=74	=74
0r	2A]	2c]	2e]	2a]
.	2A	2c	2e	2a
.	1E	1B	2.e	1g
.	.	.	4d	.
=75	=75	=75	=75	=75
0r	2F	2A	2c	2f
.	4D	4A	2d	1f
.	4E	4G	.	.
.	4F	4A	1c	.
.	4G	4B	.	.
.	[2A	[2c	.	4e
.	.	.	.	4d
=76	=76	=76	=76	=76
0r	2A]	4c]	1A	2c
.	.	4B	.	.
.	2F	1A	.	2d
.	1E	.	1B	1e
.	.	2G#	.	.
=77	=77	=77	=77	=77
0AA	1r	1A	2.e	0cc
.	.	.	4d	.
.	1A	1e	4c	.
.	.	.	4B	.
.	.	.	2A	.
=78	=78	=78	=78	=78
1E	1G#	1e	1B	1b
[1AA	1A	1e	2.c	2a
.	.	.	.	4a
.	.	.	4d	4g#
=79	=79	=79	=79	=79
1AA]	2.A	2.c	1e	4a
.	.	.	.	4b
.	.	.	.	2.cc
.	4G#	4B	.	.
1AA	4A	4A	2e	.
.	4B	4G#	.	4b
.	2c	2A	[2e	2a
=80	=80	=80	=80	=80
0E	2B	2B	4e]	2g#
.	.	.	4d	.
.	2A	2.e	2c	1a
.	1B	.	2B	.
.	.	4d	.	.
.	.	2B	2e	2g#
=81	=81	=81	=81	=81
[0AA	[0A	[0c#	[0e	[0a
=82	=82	=82	=82	=82
0AA]	0A]	0c#]	0e]	0a]
*	*	*	*	*-
!! Crucifixus
*Itenor	*Icalto	*Icalto	*Icant
!Tenor	!Altus 2	!Altus 1	!Cantus
*clefGv2	*clefG2	*clefG2	*clefG2
*k[]	*k[]	*k[]	*k[]
*E:phr	*E:phr	*E:phr	*E:phr
*M4/2	*M4/2	*M4/2	*M4/2
=83	=83	=83	=83
0r	0r	1A	1.a
.	.	1c	.
.	.	.	2g
=84	=84	=84	=84
0r	0r	1.d	1f
.	.	.	1e
.	.	2c	.
=85	=85	=85	=85
1r	0r	2e	2g
.	.	2e	2g
[1A	.	2f	2.a
.	.	4e	.
.	.	4d	4b
=86	=86	=86	=86
2A]	0r	4c	2cc
.	.	4d	.
2G	.	4e	2.b
.	.	8d	.
.	.	8c	.
1F	.	4d	.
.	.	4c	4a
.	.	4c	2a
.	.	8B	.
.	.	8A	.
=87	=87	=87	=87
1E	0r	2B	4g
.	.	.	8a
.	.	.	8b
.	.	2e	1cc
2G	.	1d	.
2G	.	.	2b
=88	=88	=88	=88
2.A	1.e	1.c	1cc
4B	.	.	.
2c	.	.	1r
[2B	2d	2G	.
=89	=89	=89	=89
4B]	1c	1A	1e
4A	.	.	.
2A	.	.	.
4E	1B	1r	1g
4F	.	.	.
4G	.	.	.
4E	.	.	.
=90	=90	=90	=90
1F	2d	2.A	1.a
.	2d	.	.
.	.	4B	.
2E	2.e	2c	.
[2E	.	2B	2g
.	4f	.	.
=91	=91	=91	=91
2E]	2g	2e	2.b
2E	2.g	2e	.
.	.	.	4b
2G	.	2d	2b
.	4f	.	.
2A	[2e	[2c	2cc
=92	=92	=92	=92
1F	2e]	2c]	1a
.	2d	4B	.
.	.	4A	.
1E	2e	2B	2g#
.	2e	2B	2b
=93	=93	=93	=93
0r	2.g	2.e	2.cc
.	4f	4d	4b
.	2e	2c	2a
.	2d	2B	2g
=94	=94	=94	=94
1r	2e	2c	1a
.	2f#	2d	.
2r	2g	2G	1b
2G	2d	2g	.
=95	=95	=95	=95
2.c	2.e	2.a	0r
4B	4d	4g	.
2A	2c	2f	.
2G#	2B	2e	.
=96	=96	=96	=96
2.A	2.c	4f	1r
.	.	4e	.
.	.	2.e	.
4G	4B	.	.
2F	2A	.	2r
.	.	4d	.
2G	[2G	2d	2b
=97	=97	=97	=97
0C	2G]	2e	2.cc
.	2G	2c	.
.	.	.	4b
.	2.c	2.e	2a
.	.	.	2g
.	4d	4d	.
=98	=98	=98	=98
1r	2e	2c	4a
.	.	.	4g
.	2d	2B	2.g
[1c	2e	1A	.
.	.	.	8f
.	.	.	8e
.	4d	.	2f#
.	4c	.	.
=99	=99	=99	=99
1c]	1e	1G	0g
1B	1d	1g	.
=100	=100	=100	=100
0A	1r	1f	0cc
.	1a	[1e	.
=101	=101	=101	=101
1E	1g	1e]	1b
[1F	2f	1c	[1a
.	2f	.	.
=102	=102	=102	=102
2F]	2c	2f	2a]
2E	2e	2g	2g
1F	4d	1a	2f
.	4c	.	.
.	[2c	.	2e
=103	=103	=103	=103
0G	2c]	0g	2.d
.	4B	.	.
.	4A	.	4c
.	1B	.	1d
!! Et resurrexit
*Itenor	*Icalto	*Icalto	*Icant
!Tenor	!Altus 2	!Altus 1	!Cantus
*clefGv2	*clefG2	*clefG2	*clefG2
*k[]	*k[]	*k[]	*k[]
*E:phr	*E:phr	*E:phr	*E:phr
*M3/2	*M3/2	*M3/2	*M3/2
=104	=104	=104	=104
2c	2e	2g	2c
2c	2e	2g	2r
2B	2d	2g	2r
=105	=105	=105	=105
1A	1c	1f	1r
2G#	2B	2e	2r
=106	=106	=106	=106
1A	2c	2.f	2cc
.	2A	.	2cc
.	.	8e	.
.	.	8d	.
2G	2B	2e	2b
=107	=107	=107	=107
2F	2d	2A	1a
1E	1e	1B	.
.	.	.	2g#
=108	=108	=108	=108
1D	2f	2.d	1a
.	2f	.	.
.	.	4A	.
2r	2e	2c	2g
=109	=109	=109	=109
1r	1d	2d	2f
.	.	1A	1e
2r	2c#	.	.
=110	=110	=110	=110
1r	1d	1f	4d
.	.	.	4e
.	.	.	4f
.	.	.	4g
2r	2d	2f	4a
.	.	.	4b-
=111	=111	=111	=111
1r	2c	2e	2.a
.	1B	1d	.
.	.	.	8g
.	.	.	8f#
2r	.	.	2g#
=112	=112	=112	=112
1c	1A	2e	1a
.	.	2r	.
2B	2d	2g	2r
=113	=113	=113	=113
1A	2.c	2f	1cc
.	.	2.e	.
.	4A	.	.
2G#	2B	.	2b
.	.	4d	.
=114	=114	=114	=114
2A	2e	2c	1a
2D	2f	2d	.
2E	2e	2B	2g#
=115	=115	=115	=115
1F	2d	2A	2.a
.	2c	2A	.
.	.	.	4g
2D	[2d	4B	[2f
.	.	4A	.
=116	=116	=116	=116
2D	4d]	2.A	2f]
.	4c	.	.
1E	1B	.	1e
.	.	8G	.
.	.	8F#	.
.	.	2G#	.
!! Et ascendit
*Itenor	*Icalto	*Icalto	*Icant
!Tenor	!Altus 2	!Altus 1	!Cantus
*clefGv2	*clefG2	*clefG2	*clefG2
*k[]	*k[]	*k[]	*k[]
*E:phr	*E:phr	*E:phr	*E:phr
*M4/2	*M4/2	*M4/2	*M4/2
=117	=117	=117	=117
1A	2c#	1A	2r
.	2c#	.	2e
1D	1d	2r	1f#
.	.	2A	.
=118	=118	=118	=118
2G	1d	1B	1g
2G	.	.	.
2F	2f	2c	2.a
4F	2f	2d	.
4G	.	.	4b
=119	=119	=119	=119
4A	2.e	4c	2cc
4B	.	4d	.
2.c	.	4e	1cc
.	4d	4f	.
.	4e	1g	.
4d	4f	.	.
2e	[2g	.	2b
=120	=120	=120	=120
1d	4g]	1a	1dd
.	8f	.	.
.	8e	.	.
.	2f	.	.
2A	1e	2a	1cc#
2A	.	2a	.
=121	=121	=121	=121
2B	0r	2g	0r
2c	.	2e	.
2.d	.	2.f	.
4d	.	4f	.
=122	=122	=122	=122
2c	0r	2e	2r
2.d	.	2.f	2a
.	.	.	2b
4c	.	4g	.
2A	.	[2a	2cc
=123	=123	=123	=123
1B	2r	4a]	1.dd
.	.	8g	.
.	.	8f#	.
.	2d	2g#	.
1A	2e	1a	.
.	2f#	.	2cc
=124	=124	=124	=124
0r	1.g	1e	2b
.	.	.	2g
.	.	2r	2.a
.	2f#	2d	.
.	.	.	4b
=125	=125	=125	=125
1r	2g	2e	4cc
.	.	.	4b
.	2d	2f#	2.dd
2r	1e	2g	.
.	.	.	4cc
2E	.	2g	[2cc
=126	=126	=126	=126
2F	1d	2a	2cc]
2G	.	2g	2b
[1A	1c	2e	1cc
.	.	2e	.
=127	=127	=127	=127
2A]	2c	2f	1r
2B	2d	2g	.
2c	2e	1a	2r
[2d	[2f	.	2a
=128	=128	=128	=128
4d]	4f]	2d	2b
4c	4g	.	.
2A	2.a	2e	2cc
1B	.	2.d	2dd
.	8g	.	.
.	8f#	.	.
.	2g#	.	[2dd
.	.	4e	.
=129	=129	=129	=129
1A	1a	4f	2dd]
.	.	4g	.
.	.	2.a	2cc
1r	1e	.	1b
.	.	4g	.
.	.	4g	.
.	.	8f	.
.	.	8e	.
=130	=130	=130	=130
2r	1r	1.f	1a
1d	.	.	.
.	1a	.	1r
[2c	.	2e	.
=131	=131	=131	=131
2c]	1g	1r	2r
2B	.	.	1dd
2.A	2f	1a	.
.	[2e	.	[2cc
4B	.	.	.
=132	=132	=132	=132
2c	2e]	1g	2cc]
2G	1d	.	2b
[1A	.	2f	[1a
.	4c	4e	.
.	4B	4d	.
=133	=133	=133	=133
2A]	2c	4e	1a]
.	.	4f	.
2G	2B	1e	.
1F	1A	.	1a
.	.	2d	.
=134	=134	=134	=134
1E	1B	2e	1g#
.	.	1B	.
2r	2r	.	2r
[2E	[2B	2B	[2g#
=135	=135	=135	=135
2E]	2B]	0e	2g#]
2E	2B	.	2g#
1A	1c#	.	1a
=136	=136	=136	=136
1D	2d	2f	2a
.	2f	2d	2a
1r	2e	2c#	2a
.	2f	2d	2a
=137	=137	=137	=137
0r	4e	4A	1cc
.	4d	4B	.
.	4e	4c	.
.	4f	4d	.
.	4g	4e	1b
.	4f	4f	.
.	[2e	4g	.
.	.	4e	.
=138	=138	=138	=138
1r	4e]	1f	0a
.	4d	.	.
.	2d	.	.
1A	2c	2e	.
.	2e	2A	.
=139	=139	=139	=139
2G#	2e	2B	0r
2A	2e	2c	.
4D	1f	1d	.
4E	.	.	.
4F	.	.	.
4G	.	.	.
=140	=140	=140	=140
4A	1e	2.c	2r
4G	.	.	.
4A	.	.	2a
4B	.	4d	.
2c	1r	2e	2g
2A	.	2f	2a
=141	=141	=141	=141
1B-	0r	2f	4d
.	.	.	4e
.	.	2d	4f
.	.	.	4g
[1A	.	2f	4a
.	.	.	4g
.	.	4e	4a
.	.	4d	4b
=142	=142	=142	=142
1A]	2r	4e	1cc
.	.	4A	.
.	2e	2.a	.
1r	2d	.	2b
.	.	8g	.
.	.	8f#	.
.	2e	2g#	2b
=143	=143	=143	=143
0r	4A	2a	1cc
.	4B	.	.
.	4c	2a	.
.	4d	.	.
.	2e	2g#	2b
.	[2f	2a	[2a
=144	=144	=144	=144
1r	4f]	4d	4a]
.	4e	4e	4g
.	2.d	4f	2f
.	.	4g	.
1A	.	2a	2e
.	4c	.	.
.	2c	[2e	2a
=145	=145	=145	=145
2G#	2B	2e]	2b
2A	2A	2e	2cc
4D	2r	1f	2dd
4E	.	.	.
4F	2A	.	[2cc
4G	.	.	.
=146	=146	=146	=146
4A	2c	1e	4cc]
4B	.	.	4b
4c	2c	.	1a
4A	.	.	.
1B-	1d	1d	.
.	.	.	2g
=147	=147	=147	=147
[0A	[0e	[0c#	[0a
=148	=148	=148	=148
0A]	0e]	0c#]	0a]
*-	*-	*-	*-
!! Et in Spiritum
**kern	**kern	**kern	**kern	**kern
*Ibass	*Itenor	*Icalto	*Icalto	*Icant
!Bassus	!Tenor	!Altus 2	!Altus 1	!Cantus
*clefF4	*clefGv2	*clefG2	*clefG2	*clefG2
*k[]	*k[]	*k[]	*k[]	*k[]
*E:phr	*E:phr	*E:phr	*E:phr	*E:phr
*M4/2	*M4/2	*M4/2	*M4/2	*M4/2
=149	=149	=149	=149	=149
0r	1A	1e	2r	1cc
.	.	.	2A	.
.	2G	2e	2B	2b
.	[2F	[2f	[2c	[2a
=150	=150	=150	=150	=150
0r	2F]	2f]	2c]	2a]
.	2D	2f	2d	2a
.	1E	2e	1B	4g
.	.	.	.	4f
.	.	[2e	.	4e
.	.	.	.	4d
=151	=151	=151	=151	=151
1A	1.e	2e]	2r	2c
.	.	2A	2c	2cc
2G	.	2B	2e	2b
[2F	2A	2c	[2f	[2a
=152	=152	=152	=152	=152
2F]	2c	1A	2f]	2a]
2D	2d	.	2f	2a
2E	2B	2r	2e	2g#
[2E	2B	[2e	[2g#	[2b
=153	=153	=153	=153	=153
2E]	2B	2e]	2g#]	2b]
2E	2.e	2e	2g#	2b
2.A	.	2c	[1a	1cc
.	4d	.	.	.
.	4c	4A	.	.
4G	4B	4B	.	.
=154	=154	=154	=154	=154
2F	2A	4c	2a]	1cc
.	.	4d	.	.
2E	1c	2e	2g	.
1D	.	2f	2a	1dd
.	2B	2d	4g	.
.	.	.	4f	.
=155	=155	=155	=155	=155
1C	2.c	2r	2.e	1g
.	.	1g	.	.
.	4B	.	4d	.
1r	1A	.	1c	2r
.	.	2f	.	[2cc
=156	=156	=156	=156	=156
0r	1G	2e	1g	2cc]
.	.	2d	.	2b
.	1r	2f	2r	2a
.	.	2e	[2g	2g
=157	=157	=157	=157	=157
0r	0r	1d	2g]	2b-
.	.	.	2f	2a
.	.	2c	2e	2a
.	.	2B	2d	[2g
=158	=158	=158	=158	=158
0r	2r	1A	2e	2g]
.	2.c	.	2c	2f
.	.	2G	2d	1g
.	4B	.	.	.
.	2B	[2d	2d	.
=159	=159	=159	=159	=159
1r	2.A	4d]	4f	0a
.	.	4c	4e	.
.	.	2c	1e	.
.	4G	.	.	.
2r	1F	2.A	.	.
[2A	.	.	2d	.
.	.	4B	.	.
=160	=160	=160	=160	=160
2A]	2E	2c	1e	0r
2G	2e	2B	.	.
2F	2d	2A	2r	.
2E	[2c	2G	[2e	.
=161	=161	=161	=161	=161
1G	2c]	0r	2e]	0r
.	2B	.	2d	.
2F	2A	.	2d	.
2E	[2G	.	2c	.
=162	=162	=162	=162	=162
2.D	4G]	1r	2B	0r
.	8F	.	.	.
.	8E	.	.	.
.	2F	.	1A	.
4C	.	.	.	.
1BB	1D	2r	.	.
.	.	[2d	2G#	.
=163	=163	=163	=163	=163
1AA	2.E	2d]	1A	2r
.	.	2c	.	1a
.	8D	.	.	.
.	8E	.	.	.
1r	2F	2A	2r	.
.	2G	2B	2d	2g
=164	=164	=164	=164	=164
2r	1A	1.c	2c	1e
1A	.	.	2A	.
.	1r	.	2c	2f
2G	.	4B	2d	[2g
.	.	4A	.	.
=165	=165	=165	=165	=165
2E	0r	1B	1e	4g]
.	.	.	.	4f
2G	.	.	.	2.e
1F	.	2.A	2r	.
.	.	.	.	8d
.	.	.	.	8c
.	.	.	2a	2d
.	.	4B	.	.
=166	=166	=166	=166	=166
1C	2r	2c	2a	2.e
.	2c	2e	2g	.
.	.	.	.	4f
1r	2c	2e	2e	1g
.	2B	2d	[2g	.
=167	=167	=167	=167	=167
0r	2G	2B	4g]	1r
.	.	.	4f	.
.	2B	2.d	2d	.
.	1A	.	1e	2r
.	.	4c	.	.
.	.	4c	.	2a
.	.	8B	.	.
.	.	8A	.	.
=168	=168	=168	=168	=168
1r	2E	2B	1e	2a
.	2e	1c	.	2g
1A	2e	.	2r	1e
.	2c	2A	2A	.
=169	=169	=169	=169	=169
2A	2A	0r	2c	2f
2G	2B	.	2d	2.g
2E	2c	.	2G	.
.	.	.	.	4f
2G	[2B	.	2G	[2e
=170	=170	=170	=170	=170
1F	4B]	0r	1A	4e]
.	4A	.	.	8d
.	.	.	.	8c
.	1A	.	.	2d
1E	.	.	1B	1e
.	2G#	.	.	.
=171	=171	=171	=171	=171
0r	2.A	2.a	2.e	2.cc
.	4A	4a	4e	4cc
.	2A	2a	2e	2cc
.	2E	2g	2e	2b
=172	=172	=172	=172	=172
0r	2F	2f	2c	2a
.	4D	1f	1d	4a
.	4E	.	.	4g
.	4F	.	.	4a
.	4G	.	.	4b
.	[2A	4e	2c	[2cc
.	.	4d	.	.
=173	=173	=173	=173	=173
0r	4A]	2e	4A	4cc]
.	4G#	.	4B	4b
.	2A	2e	4c	2.a
.	.	.	4A	.
.	1E	1e	1B	.
.	.	.	.	8g
.	.	.	.	8f#
.	.	.	.	2g#
!! Et unam sanctam
*Ibass	*Itenor	*Icalto	*Icalto	*Icant
!Bassus	!Tenor	!Altus 2	!Altus 1	!Cantus
*clefF4	*clefGv2	*clefG2	*clefG2	*clefG2
*k[]	*k[]	*k[]	*k[]	*k[]
*E:phr	*E:phr	*E:phr	*E:phr	*E:phr
*M3/2	*M3/2	*M3/2	*M3/2	*M3/2
=174	=174	=174	=174	=174
2F	2A	1c	2A	1a
2F	2A	.	2c	.
2E	2G	2r	2c	2r
=175	=175	=175	=175	=175
1D	2F	2f	2B-	1r
.	2D	2f	2A	.
2C#	2E	2e	2A	2r
=176	=176	=176	=176	=176
2D	2F	1d	2A	1r
2.BB-	2.D	.	2.G	.
.	.	2d	.	2r
4BB-	4D	.	4G	.
=177	=177	=177	=177	=177
1AA	1.E	4c	4A	2cc
.	.	4d	4B	.
.	.	4e	4c	2cc
.	.	4f	4d	.
2r	.	2g	2e	2b
=178	=178	=178	=178	=178
2r	1r	2e	2c	1a
2D	.	2f	2d	.
2E	2r	2e	2B	2g#
=179	=179	=179	=179	=179
2F	1r	2c	2.A	2a
2.D	.	2.d	.	2.f
.	.	.	4G	.
.	2r	.	4A	.
4D	.	4d	4B	4f
=180	=180	=180	=180	=180
1.C	2r	2G	2.c	1e
.	2c	2g	.	.
.	.	.	4d	.
.	2c	2g	2e	2r
=181	=181	=181	=181	=181
1r	2F	2f	2a	2cc
.	2A	2.e	2a	2cc
2r	2E	.	2g	2b
.	.	4e	.	.
=182	=182	=182	=182	=182
1r	1F	1c	2.f	2.a
.	.	.	4f	4a
2r	2C	2c	2e	2g
=183	=183	=183	=183	=183
1r	2F	1A	2c	2a
.	2D	.	2.d	2.f
2r	2D	2A	.	.
.	.	.	4d	4f
=184	=184	=184	=184	=184
2A	1r	2A	1c	1e
2A	.	2e	.	.
2G	2r	2e	2g	2r
=185	=185	=185	=185	=185
1F	2A	2f	1a	2cc
.	2A	2f	.	2cc
2G	2B	2d	2g	2b
=186	=186	=186	=186	=186
1A	2.c	2c	2.e	2.a
.	.	2.e	.	.
.	4c	.	4f	4a
2E	2B	.	2g	2g
.	.	4d	.	.
=187	=187	=187	=187	=187
1F	2A	2c	2a	2f
.	2A	2d	2a	2f
2G	2B	2d	2g	2d
!! Confiteor
*Ibass	*Itenor	*Icalto	*Icalto	*Icant
!Bassus	!Tenor	!Altus 2	!Altus 1	!Cantus
*clefF4	*clefGv2	*clefG2	*clefG2	*clefG2
*k[]	*k[]	*k[]	*k[]	*k[]
*E:phr	*E:phr	*E:phr	*E:phr	*E:phr
*M4/2	*M4/2	*M4/2	*M4/2	*M4/2
=188	=188	=188	=188	=188
[0C	2c	0c	[0e	1g
.	2G	.	.	.
.	2G	.	.	2r
.	2G	.	.	2g
=189	=189	=189	=189	=189
0C]	2.c	2r	1e]	2g
.	.	2e	.	2g
.	4B	.	.	.
.	2A	2e	2r	2.cc
.	2G	2e	2c	.
.	.	.	.	4b
=190	=190	=190	=190	=190
0r	2F	2f	2c	2a
.	2C	2e	2c	2g
.	4D	2d	2f	2b-
.	4E	.	.	.
.	4F	2d	2f	2a
.	4G	.	.	.
=191	=191	=191	=191	=191
0r	4A	1c	2e	2a
.	4B	.	.	.
.	1c	.	2e	4g
.	.	.	.	4f
.	.	2G	1d	1g
.	2B	[2G	.	.
=192	=192	=192	=192	=192
1.C	2.c	2G]	1g	0e
.	.	2G	.	.
.	8B	.	.	.
.	8A	.	.	.
.	1G	2.c	2r	.
2C	.	.	[2c	.
.	.	4B	.	.
=193	=193	=193	=193	=193
2.F	1r	1A	2c]	0r
.	.	.	2c	.
4E	.	.	.	.
2D	2r	2A	2f	.
2C	[2G	2c	2e	.
=194	=194	=194	=194	=194
2BB	2G]	2d	2d	0r
2C	2G	1e	2c	.
1AA	[1c	.	2e	.
.	.	4d	2f#	.
.	.	4c	.	.
=195	=195	=195	=195	=195
1GG	2c]	2e	1g	2r
.	2B	2d	.	1g
1r	2.c	2r	1e	.
.	.	[2c	.	2g
.	4B	.	.	.
=196	=196	=196	=196	=196
0r	2.A	2c]	2r	2.cc
.	.	2c	1c	.
.	4G	.	.	4b
.	2F	2f	.	[1a
.	2A	2e	2c	.
=197	=197	=197	=197	=197
0r	2D	2d	2f	2a]
.	2E	2B	2e	2g
.	[1F	2A	2d	[1f
.	.	2A	2c	.
=198	=198	=198	=198	=198
0r	1F]	1a	2d	2f]
.	.	.	1c	2e
.	1G	[1g	.	1d
.	.	.	2B	.
=199	=199	=199	=199	=199
0C	2r	1g]	1c	1e
.	1G	.	.	.
.	.	1e	1c	1g
.	[2E	.	.	.
=200	=200	=200	=200	=200
1AA	2E]	1e	1c	1a
.	2.A	.	.	.
1E	.	1e	1B	1b
.	8G	.	.	.
.	8F#	.	.	.
.	2G#	.	.	.
=201	=201	=201	=201	=201
1AA	1A	1e	2A	1cc#
.	.	.	1a	.
1r	2.d	2.f#	.	2.dd
.	.	.	2a	.
.	4d	4f#	.	4dd
=202	=202	=202	=202	=202
0r	2d	2f#	2a	2dd
.	2B	2g	2d	2dd
.	2A	2a	2e	2cc
.	2G	2d	[2g	2b
=203	=203	=203	=203	=203
0r	0c	2e	2g]	1cc
.	.	2a	1f	.
.	.	1g	.	2cc
.	.	.	2e	[2cc
=204	=204	=204	=204	=204
1r	1F	2.a	2f	4cc]
.	.	.	.	4b
.	.	.	2.c	2.a
.	.	8g	.	.
.	.	8f	.	.
2r	2.c	1e	.	.
.	.	.	4d	4g
2C	.	.	2e	[2g
.	4B	.	.	.
=205	=205	=205	=205	=205
2D	1A	0r	2.d	4g]
.	.	.	.	8f
.	.	.	.	8e
2D	.	.	.	2f#
.	.	.	4c	.
4E	2G	.	1B	1g
4F	.	.	.	.
4G	2G	.	.	.
4E	.	.	.	.
=206	=206	=206	=206	=206
2F	2A	1c	0r	0r
2A	2A	.	.	.
1G	4B	2d	.	.
.	4c	.	.	.
.	4d	2d	.	.
.	4B	.	.	.
=207	=207	=207	=207	=207
1E	2c	4e	0r	0r
.	.	4f	.	.
.	2.B	4g	.	.
.	.	4e	.	.
2D	.	2f	.	.
.	4A	.	.	.
2C	[2c	2e	.	.
=208	=208	=208	=208	=208
2.G	2c]	2d	1r	0r
.	2B	2.e	.	.
4F	.	.	.	.
2E	2G	.	1c	.
.	.	4d	.	.
2F	2A	[2c	.	.
=209	=209	=209	=209	=209
1D	1F	2c]	2d	1r
.	.	2B	2d	.
1C	1G	2c	4e	2r
.	.	.	4f	.
.	.	2e	4g	2g
.	.	.	4e	.
=210	=210	=210	=210	=210
0r	1r	2d	2f	2a
.	.	2c	2e	2a
.	1G	[1g	1d	4b
.	.	.	.	4cc
.	.	.	.	4dd
.	.	.	.	4b
=211	=211	=211	=211	=211
1r	2c	1g]	2e	2cc
.	2G	.	2d	2b
2r	2d	1r	2f	2a
2C	2e	.	[2g	2cc
=212	=212	=212	=212	=212
2D	2.d	0r	4g]	2b
.	.	.	4f	.
2D	.	.	2f	1a
.	4c	.	.	.
1E	1B	.	2.e	.
.	.	.	.	2g#
.	.	.	4d	.
=213	=213	=213	=213	=213
2.F	1.A	2r	4c	1a
.	.	.	4B	.
.	.	2c	4A	.
4E	.	.	4G	.
1D	.	2d	1F	1r
.	2B	2d	.	.
=214	=214	=214	=214	=214
2C	2c	4e	1G	1g
.	.	4f	.	.
2E	2.B	4g	.	.
.	.	4e	.	.
2D	.	2f	1r	2a
.	4A	.	.	.
2C	[2A	2e	.	2a
=215	=215	=215	=215	=215
1BB	2A]	2d	1r	4b
.	.	.	.	4cc
.	2G#	2d	.	4dd
.	.	.	.	4b
1AA	2A	2f	2r	1cc
.	2A	[2e	2c	.
=216	=216	=216	=216	=216
0r	2G	4e]	2d	2b
.	.	4d	.	.
.	2F	1d	2d	2a
.	1E	.	4e	2g
.	.	.	4f	.
.	.	2c#	4g	2e
.	.	.	4e	.
=217	=217	=217	=217	=217
1r	4D	1d	2f	2.a
.	4E	.	.	.
.	4F	.	2f	.
.	4G	.	.	4b
2r	2A	2r	2e	1cc
2C	2E	[2g	2e	.
=218	=218	=218	=218	=218
2D	1r	4g]	2.d	2b
.	.	4f	.	.
2D	.	2f	.	2.a
.	.	.	4c	.
1E	2r	2.e	1B	.
.	.	.	.	8g
.	.	.	.	8f#
.	[2e	.	.	2g#
.	.	4d	.	.
=219	=219	=219	=219	=219
1AA	4e]	4c	[0A	0a
.	4d	4B	.	.
.	4c	4A	.	.
.	4B	4G	.	.
2.D	4A	2F	.	.
.	4G	.	.	.
.	4F	[2f	.	.
4E	4E	.	.	.
=220	=220	=220	=220	=220
2F	2D	2f]	1A]	2r
2C	2E	1e	.	2.a
1D	1F	.	2r	.
.	.	.	.	4g
.	.	2d	[2A	4a
.	.	.	.	4b
=221	=221	=221	=221	=221
0AA	1E	[0e	4A]	2.cc
.	.	.	4G#	.
.	.	.	4A	.
.	.	.	4B	4b
.	1A	.	1c	1a
=222	=222	=222	=222	=222
[0E	[0G#	1e_	[0B	[0b
.	.	1e_	.	.
=223	=223	=223	=223	=223
0E]	0G#]	0e]	0B]	0b]
==	==	==	==	==
*-	*-	*-	*-	*-
!!!CDT: 1525/^1526/-1594/2/2
!!!OCY: Italia
!!!AGN: Mass (Parody)
!!!AST: renaissance, vocal
!!!ASW: Motet 1569 (Palestrina)
!!!PWK: Masses, Book 4
!!!RNB: Cadence finals: A,C,G,F
!!!YOR: Le Opere Complete, v. 10, p. 150
!!!YOO: Rome, Italy: Fratelli Scalera
!!!END: 1992//
!!!EED: John Miller
!!!YEC: Copyright 2000, John Miller
!!!YEN: United States of America
!!!YEM: Rights to all derivative electronic formats reserved.
!!!YEM: Refer to licensing agreement for further details.
!!!YEM: This file must be accompanied by the licensing agreement.
!!!YEM: A copy of the licensing agreement may be found at http://www.music-cog.ohio-state.edu/HumdrumDatabases/Palestrina/license.txt
!!!EMD: converted to Humdrum by Bret Aarden
